X: 12
T: POLKA A BLANCHARD
M: 4/4
L: 1/8
Q:1/4=120
K:G
|gfgB ed/2e/2d/2c/2B|gfgB ed3/2 z/2 d|gfgB ed/2e/2d/2c/2B|dcBA BG3/2 z/2
 G|
B/2c/2d3/2c/2B dcBA|Bc3/2B/2c ed3/2c/2B|B/2c/2d3/2c/2B dcBA|BcBA BG3/2 z
/2 G|
g|
